!!!COA:	Josquin des Prez
!!!CDT:	~1450-1521/08/27
!!!COA2: Tinctoris
!!!OPR:	Missa L'ami Baudichon
!!!ONM:	3
!!!OTL:	Credo
!!!AGN:	Mass; Credo
!!!SCT:	NJE 5.1
!!!SCA:	New Josquin Edition 5.1
!!!voices:	4
!!!voices-OPR:	4
**kern	**kern	**kern	**kern
*staff4	*staff3	*staff2	*staff1
*Ivox	*Ivox	*Ivox	*Ivox
*I"Bassus	*I"Tenor	*I"Altus	*I"Superius
*I'B	*I'T	*I'A	*I'S
*>A	*>A	*>A	*>A
*clefF4	*clefGv2	*clefGv2	*clefG2
*k[]	*k[]	*k[]	*k[]
*	*rscale:1/2	*	*
*M3/1	*M9/1	*M3/1	*M3/1
*met(O)	*met(O.)	*met(O)	*met(O)
!!primary-mensuration: met(O)
=1-	=1-	=1-	=1-
0.r	0.r	0c	0cc
.	.	2e\	1cc
.	.	2f\	.
=2	=2-	=2	=2
0.r	0.r	1g	1b
.	.	1.f	1.a
.	.	2e\	2g/
=3	=3-	=3	=3
0.r	0.r	1e	1g
.	.	2d\	1.f
.	.	2.d\	.
.	.	4c\	.
.	.	2A/	2e/
=4	=4	=4	=4
0.r	0.r	2G/	1e
.	.	2c\	.
.	.	2d\	1.d
.	.	1B	.
.	.	2A/	2c/
=5	=5-	=5	=5
0.r	0.r	0.c	0c
.	.	.	1r
=6	=6-	=6	=6
0.r	0.r	0.r	0c
.	.	.	1d
=7	=7	=7	=7
0.r	0.r	0c	0e
.	.	1d	1f
=8	=8-	=8	=8
0.r	0.r	0e	2.g/
.	.	.	4a/
.	.	.	2b\
.	.	.	1cc
.	.	1f	.
.	.	.	4b\
.	.	.	4a/
=9	=9-	=9	=9
0.r	0.r	0g	1b
.	.	.	1.ee
.	.	1c	.
.	.	.	2dd\
=10	=10	=10	=10
0.r	0.r	1B	1dd
.	.	0A	2cc\
.	.	.	1ee
.	.	.	4dd\
.	.	.	4cc\
=11	=11-	=11	=11
0.r	0.r	2.G/	2b\
.	.	.	1dd
.	.	4A/	.
.	.	2B\	.
.	.	2c\	4cc\
.	.	.	4b\
.	.	2d\	2a/
.	.	2e\	2g/
=12	=12-	=12	=12
0.r	0.r	2f\	2a/
.	.	2g\	1g
.	.	1c	.
.	.	.	1cc
.	.	1d	.
.	.	.	2b\
=13	=13	=13	=13
0.C	0.r	0.c	1cc
.	.	.	1r
.	.	.	1cc
=14	=14-	=14	=14
1r	0.r	0.r	1cc
1r	.	.	2b\
.	.	.	1cc
1c	.	.	.
.	.	.	4b\
.	.	.	4a/
=15	=15-	=15	=15
1c	0.r	0.r	1g
2B\	.	.	2r
1c	.	.	2c/
.	.	.	2e/
4B\	.	.	2f/
4A\	.	.	.
=16	=16	=16	=16
1G	0.r	0.r	1g
2r	.	.	2f/
2C/	.	.	1g
2E\	.	.	.
2F\	.	.	4f/
.	.	.	4e/
=17	=17-	=17	=17
1G	0.r	0.r	2d/
.	.	.	2g/
2F\	.	.	2a/
1G	.	.	2b\
.	.	.	1g
2E\	.	.	.
=18	=18-	=18	=18
2F\	0.r	0.r	1r
1G	.	.	.
.	.	.	1e
2C/	.	.	.
2D\	.	.	2f/
2E\	.	.	[2g/
=19	=19	=19	=19
1C	0.r	1e	4g/]
.	.	.	4f/
.	.	.	2e/
1r	.	2f\	2d/
.	.	2.g\	2e/
1r	.	.	1c
.	.	4f\	.
.	.	2e\	.
=20	=20-	=20	=20
0.r	0.r	2d\	1r
.	.	2e\	.
.	.	1c	1e
.	.	1r	2f/
.	.	.	[2g/
=21	=21-	=21	=21
0.r	0.r	1e	2g/]
.	.	.	2c/
.	.	2f\	2d/
.	.	1g	2e/
.	.	.	1c
.	.	2c\	.
=22	=22	=22	=22
0.r	0.r	2d\	2r
.	.	2e\	1g
.	.	1c	.
.	.	.	2g/
.	.	2r	2a/
.	.	[2g\	2b\
=23	=23-	=23	=23
0.r	0.r	2g\]	1g
.	.	2e\	.
.	.	2f\	1dd
.	.	2g\	.
.	.	2e\	1cc
.	.	2c\	.
=24	=24-	=24	=24
0.r	0.r	2d\	1b
.	.	2.e\	.
.	.	.	1ee
.	.	4d\	.
.	.	2c\	.
.	.	2B\	1dd
.	.	2G/	.
=25	=25	=25	=25
0.r	0.r	2A/	2cc\
.	.	2B\	1dd
.	.	1G	.
.	.	.	2b\
.	.	2r	2cc\
.	.	[2g\	2dd\
=26	=26-	=26	=26
0.r	0.r	4g\]	1b
.	.	4f\	.
.	.	2.e\	.
.	.	.	1ee
.	.	4d\	.
.	.	2c\	.
.	.	2B\	1dd
.	.	2d\	.
=27	=27-	=27	=27
0.r	0.r	2e\	2cc\
.	.	2.f\	2.dd\
.	.	4e\	4cc\
.	.	4d\	4b\
.	.	4c\	4a/
.	.	1d	1b
=28	=28	=28	=28
!	!LO:N:vis=0.	!	!
1r	[y0.e	0c	0.cc
1r	.	.	.
1c	.	1c	.
=29	=29-	=29	=29
1.c	0.e]yy	1g	0.r
.	.	1e	.
2B\	.	.	.
1A	.	1c	.
=30	=30-	=30	=30
2G\	0.e	2B\	1r
1A	.	1c	.
.	.	.	1r
4G\	.	4B\	.
4F\	.	4A/	.
1E	.	1G	1g
=31	=31	=31	=31
!	!LO:N:vis=0.	!	!
0.D	[y0.f	0.d	0a
.	.	.	1a
=32	=32-	=32	=32
0d	0.f]yy	1r	1.a
.	.	1r	.
.	.	.	4b\
.	.	.	4cc\
[1B	.	1d	1dd
=33	=33-	=33	=33
1B]	0.f	2d\	1dd
.	.	1f	.
0A	.	.	2cc\
.	.	4e\	1cc
.	.	4d\	.
.	.	1c	.
.	.	.	4b\
.	.	.	4a/
=34	=34	=34	=34
!	!LO:N:vis=0.	!	!
[0.G	[y0.g	2r	0.b
.	.	1d	.
.	.	2G/	.
.	.	2d\	.
.	.	2e\	.
=35	=35-	=35	=35
0G]	0.g]yy	2d\	1.b
.	.	2.g\	.
.	.	4f\	.
.	.	2e\	2cc\
1G	.	1d	1dd
=36	=36-	=36	=36
1.c	[0.g	1c	1ee
.	.	1r	2ee\
1.B	.	.	2.dd\
.	.	1G	.
.	.	.	4cc\
.	.	.	4b\
.	.	.	4a/
=37	=37	=37	=37
1.c	0.g]	1e	1g
.	.	2c\	1r
1.G	.	2e\	.
.	.	1d	1dd
=38	=38-	=38	=38
!	!LO:N:vis=0.	!	!
1.c	[y0.g	1c	2ee\
.	.	.	2cc\
.	.	1r	2ee\
1.B	.	.	1dd
.	.	1G	.
.	.	.	[2gg\
=39	=39-	=39	=39
1.c	0.g]yy	2e\	4gg\]
.	.	.	4ff\
.	.	2c\	1ee
.	.	1e	.
1.G	.	.	4dd\
.	.	.	4cc\
.	.	1d	2.b\
.	.	.	4a/
=40	=40	=40	=40
!	!LO:N:vis=0.	!	!
[0.C	[y0.e	0.c	0cc
.	.	.	1r
=41	=41-	=41	=41
0.C]	0.e]yy	1r	1g
.	.	1r	2g/
.	.	.	2g/
.	.	1g	2.e/
.	.	.	4c/
=42	=42-	=42	=42
0.r	0.e	2g\	1c
.	.	2g\	.
.	.	2.e\	1r
.	.	4c\	.
.	.	1c	1g
=43	=43	=43	=43
!	!LO:N:vis=0.	!	!
0.r	[y0.f	1.d	2f/
.	.	.	1a
.	.	4c\	2b\
.	.	4B\	.
.	.	2A/	2cc\
.	.	[2B-\	[2dd\
=44	=44-	=44	=44
0.r	0.f]yy	2B-\]	2dd\]
.	.	4A/	4cc\
.	.	4G/	4b\
.	.	2.F/	1a
.	.	4G/	.
.	.	2A/	2r
.	.	[2B-i\	[2d/
=45	=45-	=45	=45
0.r	0.f	4B-\]	4d/]
.	.	4c\	4e/
.	.	1d	4f/
.	.	.	4g/
.	.	.	2.a/
.	.	4c\	.
.	.	4Bni\	4b\
.	.	1A	2.cc\
.	.	.	4dd\
=46	=46	=46	=46
!	!LO:N:vis=0.	!	!
0G	[y0.g	2r	0.b
.	.	2G/	.
.	.	2B\	.
.	.	2c\	.
1G	.	1d	.
=47	=47-	=47	=47
1E	0.g]yy	2e\	0.r
.	.	2.g\	.
0C	.	.	.
.	.	4f\	.
.	.	2.e\	.
.	.	4d\	.
.	.	2c\	.
=48	=48-	=48	=48
1G	0.r	2B\	0.r
.	.	2e\	.
2F\	.	4d\	.
.	.	4c\	.
2E\	.	1c	.
1D	.	.	.
.	.	2B\	.
=49	=49	=49	=49
!	!LO:N:vis=0.	!	!
[0.C	[y0.c	0c	1g
.	.	.	2a/
.	.	.	1cc
.	.	1r	.
.	.	.	2b\
=50	=50-	=50	=50
0.C]	0.c]yy	1.e	2g/
.	.	.	1a
.	.	2f\	4g/
.	.	.	4f/
.	.	1g	1e
=51	=51-	=51	=51
1.c	0.c	2.c\	2r
.	.	.	1ee
.	.	4d\	.
.	.	4e\	.
.	.	4f\	.
2B\	.	1g	2dd\
1A	.	.	1cc
.	.	2f#i\	.
=52	=52	=52	=52
!	!LO:N:vis=0.	!	!
0G	[y0.d	1g	2b\
.	.	.	1dd
.	.	1G	.
.	.	.	4cc\
.	.	.	4b\
1F	.	1A	1a
=53	=53-	=53	=53
1.G	0.d]yy	2.B\	1g
.	.	4c\	.
.	.	2.d\	1r
1.D	.	.	.
.	.	4c\	.
.	.	1A	1a
=54	=54-	=54	=54
1.G	0.d	1G	2.b\
.	.	.	4cc\
.	.	1r	2.dd\
1.F	.	.	.
.	.	.	4cc\
.	.	1A	1a
=55	=55	=55	=55
!	!LO:N:vis=0.	!	!
0E	[y0.e	0B	0.g
1E	.	1r	.
=56	=56-	=56	=56
0C	0.e]yy	2.c\	0.r
.	.	4B\	.
.	.	2A/	.
.	.	2G/	.
1C	.	2.c\	.
.	.	4B\	.
=57	=57-	=57	=57
2.c\	0.e	2A/	1r
.	.	2G/	.
4B\	.	.	.
2A\	.	2A/	2.cc\
2G\	.	2E/	.
.	.	.	4b\
2.c\	.	1r	2a/
.	.	.	2g/
4B\	.	.	.
=58	=58	=58	=58
!	!LO:N:vis=0.	!	!
2A\	[y0.e	1r	2.cc\
2G\	.	.	.
.	.	.	4b\
2A\	.	1c	2a/
2E\	.	.	2g/
1r	.	2A/	2a/
.	.	[2c\	2e/
=59	=59-	=59	=59
2.C/	0.e]yy	2c\]	2r
.	.	4B\	2e/
4D\	.	4A/	.
2.E\	.	2G/	2.g/
.	.	2c\	.
4F\	.	.	4a/
2G\	.	2B\	2b\
2A\	.	2A/	2cc\
=60	=60-	=60	=60
2E\	0.e	1.e	2b\
2A\	.	.	2.cc\
2G\	.	.	.
.	.	.	4b\
2A\	.	2c\	1a
1E	.	1B	.
.	.	.	2g#i/
=61	=61	=61	=61
!	!LO:N:vis=0.	!	!
2r	[y0.c	1A	1a
1F	.	.	.
.	.	2F/	1r
2C/	.	2G/	.
2.F\	.	1A	[1a
4G\	.	.	.
=62	=62-	=62	=62
1A	0.c]yy	2r	2a/]
.	.	2F/	2.cc\
2r	.	2.A/	.
.	.	.	4b\
2F\	.	.	1a
.	.	4B\	.
2.A\	.	1c	.
.	.	.	4g/
4B\	.	.	4f/
=63	=63-	=63	=63
2c\	0.c	1r	2e/
1A	.	.	1cc
.	.	1F	.
4G\	.	.	4b\
4F\	.	.	4a/
1E	.	1G	1g
=64	=64	=64	=64
!	!LO:N:vis=0.	!	!
[0.D	[y0.d	0A	2f/
.	.	.	2d/
.	.	.	2.f/
.	.	.	4g/
.	.	2r	1a
.	.	2d\	.
=65	=65-	=65	=65
0.D]	0.d]yy	2f\	1d
.	.	2d\	.
.	.	2.f\	2r
.	.	.	2d/
.	.	4g\	.
.	.	1a	2f/
.	.	.	2g/
=66	=66-	=66	=66
1r	0.d	2d\	1a
.	.	2.a\	.
1r	.	.	2f/
.	.	4g\	.
.	.	1f	1a
1D	.	.	.
.	.	4e\	2b\
.	.	4d\	.
=67	=67	=67	=67
!	!LO:N:vis=0.	!	!
0.A	[y0.e	1.c	1cc
.	.	.	2a/
.	.	2A/	1cc
.	.	2.c\	.
.	.	.	4b\
.	.	4d\	4a/
=68	=68-	=68	=68
0.c	0.e]yy	2.e\	1g
.	.	4f\	.
.	.	1g	2r
.	.	.	2c/
.	.	2c\	2.e/
.	.	[2g\	.
.	.	.	4f/
=69	=69-	=69	=69
2.C/	0.r	4g\]	1.g
.	.	4f\	.
.	.	1e	.
4D\	.	.	.
2.E\	.	.	.
.	.	4d\	4f/
4F\	.	4c\	4e/
1G	.	1B	1d
=70	=70	=70	=70
0.r	0.r	1e	2.g/
.	.	.	4a/
.	.	2d\	2b\
.	.	2c\	2.cc\
.	.	2e\	.
.	.	.	4b\
.	.	2f\	2a/
=71	=71-	=71	=71
0.r	0.r	2.g\	2g/
.	.	.	2b\
.	.	4f\	.
.	.	4e\	2cc\
.	.	4d\	.
.	.	2.f\	1dd
.	.	4e\	.
.	.	2d\	2ff\
=72	=72-	=72	=72
2r	0.r	2c\	2ee\
2G\	.	2B\	2.dd\
1A	.	1c	.
.	.	.	4cc\
.	.	.	1cc
1G	.	1d	.
.	.	.	2b\
=73	=73	=73	=73
*	*rscale:1	*	*
0.Cl	0.el	0.cl	0.ccl
!!LO:LB:i:g=z
=74||	=74||	=74||	=74||
*>B	*>B	*>B	*>B
*clefF4	*clefGv2	*clefGv2	*clefG2
*k[]	*k[]	*k[]	*k[]
*M2/1	*M2/1	*M2/1	*M2/1
*met(C|)	*met(C|)	*met(C|)	*met(C|)
!!!OMD: Et incarnatus est
!!section: Et incarnatus est
0r	0r	0c	0cc
=75	=75	=75	=75
0r	0r	1G	1b
.	.	1A	1cc
=76	=76	=76	=76
0r	0r	1B	1.dd
.	.	1G	.
.	.	.	2cc\
=77	=77	=77	=77
0r	0r	2A/	1a
.	.	1c	.
.	.	.	[1g
.	.	2B\	.
=78	=78	=78	=78
0r	0r	0c	1g]
.	.	.	1e
=79	=79	=79	=79
0r	0r	0r	1f
.	.	.	1g
=80	=80	=80	=80
0r	0r	[0e	1c
.	.	.	[1g
=81	=81	=81	=81
0r	0r	0e]	2g/]
.	.	.	2a/
.	.	.	2b\
.	.	.	[2cc\
=82	=82	=82	=82
0r	0r	0f	4cc\]
.	.	.	4b\
.	.	.	4a/
.	.	.	4g/
.	.	.	1a
=83	=83	=83	=83
0r	0r	1g	1b-
.	.	2f\	2a/
.	.	[2e\	[2g/
=84	=84	=84	=84
0r	0r	2e\]	2g/]
.	.	4d\	4f/
.	.	4c\	4e/
.	.	2d\	2f/
.	.	[2e\	[2g/
=85	=85	=85	=85
0r	0r	2e\]	2g/]
.	.	4d\	4f/
.	.	4c\	4e/
.	.	2.B\	1d
.	.	4A/	.
=86	=86	=86	=86
0r	0r	[0c	1c
.	.	.	1r
=87	=87	=87	=87
0r	0r	0c]	1g
.	.	.	1a
=88	=88	=88	=88
0r	0r	1G	1g
.	.	1A	1cc
=89	=89	=89	=89
0r	0r	1G	2dd\
.	.	.	1ee
.	.	1c	.
.	.	.	4dd\
.	.	.	4cc\
=90	=90	=90	=90
0r	0r	2d\	1b
.	.	1e	.
.	.	.	1ee
.	.	4d\	.
.	.	4c\	.
=91	=91	=91	=91
0r	0r	1B	1dd
.	.	1e	1cc
=92	=92	=92	=92
0r	0r	1d	1ff
.	.	1c	2ee\
.	.	.	[2cc\
=93	=93	=93	=93
0r	0r	1f	2cc\]
.	.	.	1dd
.	.	2e\	.
.	.	[2c\	4cc\
.	.	.	4b\
=94	=94	=94	=94
0r	0r	2c\]	1a
.	.	1d	.
.	.	.	2b\
.	.	2c\	[2cc\
=95	=95	=95	=95
0r	0r	1A	2cc\]
.	.	.	4b\
.	.	.	4a/
.	.	2B\	1g
.	.	[2c\	.
=96	=96	=96	=96
0r	0r	2c\]	1cc
.	.	4B\	.
.	.	4A/	.
.	.	1G	2dd\
.	.	.	[2ee\
=97	=97	=97	=97
0r	0r	1c	4ee\]
.	.	.	4dd\
.	.	.	2ee\
.	.	2d\	2ff\
.	.	[2e\	2gg\
=98	=98	=98	=98
0r	0r	4e\]	1ee
.	.	4d\	.
.	.	2e\	.
.	.	2f\	2dd\
.	.	2g\	[2ee\
=99	=99	=99	=99
0r	0r	1c	4ee\]
.	.	.	4dd\
.	.	.	1cc
.	.	1d	.
.	.	.	2b\
=100	=100	=100	=100
0r	0r	0cl	0ccl
!!LO:LB:i:g=z
=101||	=101||	=101||	=101||
*clefF4	*clefGv2	*clefGv2	*clefG2
*k[]	*k[]	*k[]	*k[]
*M2/1	*M2/1	*M2/1	*M2/1
*met(C|)	*met(C|)	*met(C|)	*met(C|)
!!!OMD: Crucifixus
!!section: Crucifixus
1C	0r	0c	0r
1F	.	.	.
=102	=102	=102	=102
1E	0r	1c	0r
2D\	.	[1d	.
[2G\	.	.	.
=103	=103	=103	=103
2G\]	0r	1d]	0r
2A\	.	.	.
1B	.	1d	.
=104	=104	=104	=104
1c	0r	0e	0r
1r	.	.	.
=105	=105	=105	=105
0C	0r	1e	0r
.	.	[1c	.
=106	=106	=106	=106
1C	0r	1c]	0r
[1F	.	1c	.
=107	=107	=107	=107
2F\]	0r	1.f	0r
2G\	.	.	.
1A	.	.	.
.	.	2e\	.
=108	=108	=108	=108
2.B-i\	0r	1d	0r
4G\	.	.	.
2A\	.	2c\	.
[2B-i\	.	[2d\	.
=109	=109	=109	=109
2B-\]	0r	2d\]	0r
1G	.	2B\	.
.	.	1A	.
2F#i\	.	.	.
=110	=110	=110	=110
0G	0r	[0G	0r
=111	=111	=111	=111
1r	0r	0G]	0r
1G	.	.	.
=112	=112	=112	=112
1G	0r	0r	0r
1F	.	.	.
=113	=113	=113	=113
1E	0r	1r	0r
2E\	.	1g	.
[2G\	.	.	.
=114	=114	=114	=114
2G\]	0r	1g	0r
4F\	.	.	.
4E\	.	.	.
1D	.	1f	.
=115	=115	=115	=115
0C	0r	1e	0r
.	.	2e\	.
.	.	[2g\	.
=116	=116	=116	=116
1c	0r	2g\]	0r
.	.	4f\	.
.	.	4e\	.
1B	.	1d	.
=117	=117	=117	=117
2A\	0r	2.c\	0r
1c	.	.	.
.	.	4d\	.
.	.	2e\	.
2B\	.	[2d\	.
=118	=118	=118	=118
1G	0r	2d\]	0r
.	.	4c\	.
.	.	4B\	.
1F	.	1A	.
=119	=119	=119	=119
1.G	0r	2.G/	0r
.	.	4A/	.
.	.	2B\	.
2A\	.	2c\	.
=120	=120	=120	=120
2B\	0r	2G/	0r
2c\	.	2c\	.
1G	.	2d\	.
.	.	[2e\	.
=121	=121	=121	=121
1C	0r	4e\]	0r
.	.	4f\	.
.	.	2.g\	.
1G	.	.	.
.	.	4f\	.
.	.	4e\	.
.	.	4d\	.
=122	=122	=122	=122
1A	0r	4f\	0r
.	.	4e\	.
.	.	4d\	.
.	.	4c\	.
2G\	.	1B	.
[2G\	.	.	.
=123	=123	=123	=123
2G\]	0r	1g	0r
2E\	.	.	.
2F\	.	2f\	.
2G\	.	[2e\	.
=124	=124	=124	=124
1C	0r	2e\]	0r
.	.	4d\	.
.	.	4c\	.
1D	.	2.B\	.
.	.	4A/	.
=125	=125	=125	=125
0Cl	0r	0cl	0r
!!LO:LB:i:g=z
=126||	=126||	=126||	=126||
!!section: Et resurrexit
!!!OMD: Et resurrexit
*	*rscale:1/2	*	*
*M2/1	*M3/0	*M2/1	*M2/1
*met(O2)	*met(O)	*met(O2)	*met(O2)
!!primary-mensuration: met(O2)
!	!LO:N:vis=0	!	!
0C	[y0g	[0c	0cc
=127.	=127-	=127.	=127.
1C	0g]yy	0c]	1cc
1C	.	.	1cc
=128.	=128-	=128.	=128.
0G	0g	1d	0b
.	.	1d	.
=129	=129	=129	=129
!	!LO:N:vis=0	!	!
1D	[y0f	0d	0a
1D	.	.	.
=130.	=130-	=130.	=130.
1F	0f]yy	0A	1r
1F	.	.	1a
=131.	=131-	=131.	=131.
0F	0f	1r	1cc
.	.	1A	1cc
=132	=132	=132	=132
!	!LO:N:vis=0	!	!
[0C	[y0e	1c	1.cc
.	.	1c	.
.	.	.	4b\
.	.	.	4a/
=133.	=133-	=133.	=133.
0C_	0e]yy	1.c	0g
.	.	4B\	.
.	.	4A/	.
=134.	=134-	=134.	=134.
0C]	0e	1.G	1g
.	.	.	[1g
.	.	[2c\	.
=135	=135	=135	=135
0r	0r	2c\]	1g]
.	.	2d\	.
.	.	1e	1g
=136.	=136-	=136.	=136.
0r	0r	1f	1a
.	.	2d\	2f/
.	.	[2e\	[2g/
=137.	=137-	=137.	=137.
0r	0r	4e\]	2g/]
.	.	4d\	.
.	.	1d	2f/
.	.	.	1e
.	.	2c#i\	.
=138	=138	=138	=138
!	!LO:N:vis=0	!	!
1r	[y0f	[0d	0d
[1D	.	.	.
=139.	=139-	=139.	=139.
1D]	0f]yy	0d]	1r
1D	.	.	[1a
=140.	=140-	=140.	=140.
1.F	0f	1r	1a]
.	.	[1A	1a
2G\	.	.	.
=141	=141	=141	=141
!	!LO:N:vis=0	!	!
1A	[y0e	2A/]	1.cc
.	.	2B\	.
1A	.	[1c	.
.	.	.	4b\
.	.	.	4a/
=142.	=142-	=142.	=142.
1.c	0e]yy	2c\]	1g
.	.	2d\	.
.	.	2.e\	1a
4B\	.	.	.
4A\	.	4f\	.
=143.	=143-	=143.	=143.
1G	0e	1g	1b
1A	.	1c	1cc
=144	=144	=144	=144
!	!LO:N:vis=0.	!	!
1.B-	[y0d	1r	1.dd
.	.	1G	.
4A\	.	.	4cc\
4G\	.	.	4b\
=145.	=145-	=145.	=145.
1F	0d_yy	1A	1a
1G	.	[1B	1g
=146.	=146-	=146.	=146.
2D\	0d]yy	2B\]	1r
1G	.	2G/	.
.	.	1A	1a
2F#i\	.	.	.
=147	=147	=147	=147
1.G	0r	0G	2b\
.	.	.	2cc\
.	.	.	[1dd
2A\	.	.	.
=148.	=148-	=148.	=148.
2B\	0r	0r	2dd\]
2c\	.	.	2cc\
1d	.	.	2a/
.	.	.	2b\
=149.	=149-	=149.	=149.
2A\	0r	0r	2cc\
2c\	.	.	1a
1B	.	.	.
.	.	.	2g#i/
=150	=150	=150	=150
!	!LO:N:vis=0	!	!
0A	[y0e	0c	[0a
=151.	=151-	=151.	=151.
1r	0e]yy	1A	0a]
1A	.	1A	.
=152.	=152-	=152.	=152.
1G	0e	1B	1r
1A	.	1c	[1a
=153	=153	=153	=153
!	!LO:N:vis=0	!	!
1D	[y0d	1d	1a]
1G	.	2G/	1b
.	.	[2d\	.
=154.	=154-	=154.	=154.
1F	0d]yy	2d\]	1a
.	.	2c\	.
1G	.	2B\	2g/
.	.	2G/	[2dd\
=155.	=155-	=155.	=155.
1D	0d	1A	4dd\]
.	.	.	4cc\
.	.	.	2a/
1G	.	1G	1b
=156	=156	=156	=156
!	!LO:N:vis=0.	!	!
2A\	[y0c	1r	2cc\
1F	.	.	1a
.	.	2.A/	.
4E\	.	.	4g/
4D\	.	4B\	4f/
=157.	=157-	=157.	=157.
1C	0c_yy	1.c	1e
1F	.	.	1a
.	.	2F/	.
=158.	=158-	=158.	=158.
2E\	0c]yy	2G/	2g/
1F	.	2F/	1a
.	.	2.A/	.
4E\	.	.	4g/
4D\	.	4B\	4f/
=159	=159	=159	=159
1C	0r	1.c	0e
1C	.	.	.
.	.	4B\	.
.	.	4A/	.
=160.	=160-	=160.	=160.
1G	0r	1B	0r
2A\	.	2c\	.
[2B\	.	[2d\	.
=161.	=161-	=161.	=161.
4B\]	0r	2d\]	0r
4A\	.	.	.
1G	.	2B\	.
.	.	1A	.
2F#i\	.	.	.
=162	=162	=162	=162
!	!LO:N:vis=0	!	!
[0G	[y0d	0G	0r
=163.	=163-	=163.	=163.
0G]	0d]yy	0r	1r
.	.	.	1g
=164.	=164-	=164.	=164.
0r	0d	1r	1a
.	.	1G	1b
=165	=165	=165	=165
!	!LO:N:vis=0	!	!
1r	[y0c	2A/	0cc
.	.	2B\	.
[1C	.	[1c	.
=166.	=166-	=166.	=166.
1C]	0c]yy	1c]	1g
1F	.	1F	1a
=167.	=167-	=167.	=167.
1E	0c	[0G	2g/
.	.	.	1g
1C	.	.	.
.	.	.	4f/
.	.	.	4e/
=168	=168	=168	=168
!	!LO:N:vis=0.	!	!
1r	[y0B	0G]	[0d
[1G	.	.	.
=169.	=169-	=169.	=169.
1G]	0B_yy	0r	0d_
1G	.	.	.
=170.	=170-	=170.	=170.
1.G	0B]yy	1r	0d]
.	.	[1g	.
2F\	.	.	.
=171	=171	=171	=171
2E\	0r	2g\]	0r
2D\	.	2f\	.
[1G	.	2e\	.
.	.	2d\	.
=172.	=172-	=172.	=172.
2G\]	0r	1g	0r
2E\	.	.	.
2F\	.	2f\	.
[2G\	.	[2e\	.
=173.	=173-	=173.	=173.
2G\]	0r	2e\]	0r
4F\	.	4d\	.
4E\	.	4c\	.
1D	.	2.B\	.
.	.	4A/	.
=174	=174	=174	=174
!	!LO:N:vis=0	!	!
[0C	[y0c	[0c	1r
.	.	.	[1g
=175.	=175-	=175.	=175.
0C_	0c]yy	0c]	1g]
.	.	.	1g
=176.	=176-	=176.	=176.
0C]	0c	0e	1g
.	.	.	1a
=177	=177	=177	=177
!	!LO:N:vis=0	!	!
1r	[y0B	0d	1b
[1G	.	.	1g
=178.	=178-	=178.	=178.
1G]	0B]yy	0G	1r
1G	.	.	[1dd
=179.	=179-	=179.	=179.
1G	0B	0r	1dd]
1G	.	.	1dd
=180	=180	=180	=180
!	!LO:N:vis=0	!	!
1A	[y0A	0r	2.cc\
.	.	.	4b\
[1F	.	.	2cc\
.	.	.	[2a/
=181.	=181-	=181.	=181.
2F\]	0A]yy	0c	2a/]
2G\	.	.	4g/
.	.	.	4f/
1A	.	.	[1e
=182.	=182-	=182.	=182.
0r	0A	1c	2e/]
.	.	.	2f/
.	.	[1c	2g/
.	.	.	[2a/
=183	=183	=183	=183
0r	0r	2c\]	2a/]
.	.	2c\	4g/
.	.	.	4f/
.	.	1c	1e
=184.	=184-	=184.	=184.
1A	0r	1c	0r
1B	.	1d	.
=185.	=185-	=185.	=185.
2A\	0r	2c\	0r
1G	.	2B\	.
.	.	1A	.
2F#i\	.	.	.
=186	=186	=186	=186
!	!LO:N:vis=0	!	!
[0G	[y0B	1G	0dd
.	.	[1d	.
=187.	=187-	=187.	=187.
0G]	0B]yy	2d\]	1g
.	.	2e\	.
.	.	2d\	[1dd
.	.	[2g\	.
=188.	=188-	=188.	=188.
1r	0B	2g\]	1dd]
.	.	4f\	.
.	.	4e\	.
1G	.	1d	1b
=189	=189	=189	=189
!	!LO:N:vis=0	!	!
1A	[y0A	0c	1.cc
[1F	.	.	.
.	.	.	[2a/
=190.	=190-	=190.	=190.
2F\]	0A]yy	0r	2a/]
4E\	.	.	4g/
4D\	.	.	4f/
2C/	.	.	2e/
[2F\	.	.	[2a/
=191.	=191-	=191.	=191.
2F\]	0A	0r	4a/]
.	.	.	4g/
2G\	.	.	1g
1D	.	.	.
.	.	.	2f#i/
=192	=192	=192	=192
!	!LO:N:vis=0	!	!
0G	[y0G	1r	[0g
.	.	1d	.
=193.	=193-	=193.	=193.
0r	0G]yy	1d	0g]
.	.	1d	.
=194.	=194-	=194.	=194.
1d	0G	1B	0r
2e\	.	1G	.
[2d\	.	.	.
=195	=195	=195	=195
2d\]	0r	1d	0r
2B\	.	.	.
2c\	.	2e\	.
2d\	.	[2d\	.
=196.	=196-	=196.	=196.
2.B\	0r	2d\]	0r
.	.	2B\	.
4G\	.	.	.
2A\	.	2c\	.
[2B\	.	[2d\	.
=197.	=197-	=197.	=197.
4B\]	0r	2d\]	0r
4A\	.	.	.
1G	.	2B\	.
.	.	1A	.
2F#i\	.	.	.
=198	=198	=198	=198
!	!LO:N:vis=0	!	!
[0G	[y0g	0G	1r
.	.	.	1g
=199.	=199-	=199.	=199.
0G]	0g]yy	1r	1.b
.	.	1G	.
.	.	.	2cc\
=200.	=200-	=200.	=200.
0r	0g	1B	2dd\
.	.	.	1dd
.	.	1c	.
.	.	.	4cc\
.	.	.	4b\
=201	=201	=201	=201
!	!LO:N:vis=0	!	!
0r	[y0f	0d	[0a
=202.	=202-	=202.	=202.
0r	0f]yy	1r	0a]
.	.	1d	.
=203.	=203-	=203.	=203.
0r	0f	1d	1r
.	.	1d	1a
=204	=204	=204	=204
!	!LO:N:vis=0	!	!
1r	[y0e	0A	1cc
1A	.	.	1cc
=205.	=205-	=205.	=205.
1A	0e]yy	0r	1cc
2G\	.	.	2b\
[2A\	.	.	[2cc\
=206.	=206-	=206.	=206.
2A\]	0e	1r	2cc\]
4G\	.	.	4b\
4F\	.	.	4a/
1E	.	1e	1g
=207	=207	=207	=207
1D	0r	1f	1a
1r	.	1e	1g
=208.	=208-	=208.	=208.
0r	0r	2c\	2e/
.	.	2d\	2f/
.	.	1e	1g
=209.	=209-	=209.	=209.
0r	0r	2f\	2a/
.	.	1d	4g/
.	.	.	4f/
.	.	.	1e
.	.	2c#i\	.
=210	=210	=210	=210
!	!LO:N:vis=0	!	!
0D	[y0f	[0d	1d
.	.	.	[1a
=211.	=211-	=211.	=211.
1D	0f]yy	0d_	1a]
[1D	.	.	1a
=212.	=212-	=212.	=212.
1D]	0f	0d]	1a
1D	.	.	1a
=213	=213	=213	=213
!	!LO:N:vis=0	!	!
1A	[y0e	0r	1cc
2G\	.	.	2b\
[2A\	.	.	[2cc\
=214.	=214-	=214.	=214.
2A\]	0e]yy	1A	2cc\]
4G\	.	.	4b\
4F\	.	.	4a/
1E	.	1B	1g
=215.	=215-	=215.	=215.
1E	0e	2G/	1b
.	.	2B\	.
1A	.	[1A	1cc
=216	=216	=216	=216
!	!LO:N:vis=0.	!	!
2D\	[y0d	2A/]	2.dd\
1G	.	2G/	.
.	.	.	4cc\
.	.	[1d	2b\
2F\	.	.	[2a/
=217.	=217-	=217.	=217.
1G	0d_yy	2d\]	2a/]
.	.	2B\	1g
1D	.	1A	.
.	.	.	2f#i/
=218.	=218-	=218.	=218.
0G	0d]yy	0G	0g
=219	=219	=219	=219
1G	0r	1B	0r
1E	.	1c	.
=220.	=220-	=220.	=220.
2D\	0r	1d	0r
1G	.	.	.
.	.	1d	.
4F\	.	.	.
4E\	.	.	.
=221.	=221-	=221.	=221.
1D	0r	1d	0r
[1A	.	1e	.
=222	=222	=222	=222
!	!LO:N:vis=0	!	!
1A]	[y0e	2c\	1r
.	.	2A/	.
1E	.	1B	1g
=223.	=223-	=223.	=223.
1A	0e]yy	1A	1a
2G\	.	1r	2b\
[2A\	.	.	[2cc\
=224.	=224-	=224.	=224.
2A\]	0e	0r	2cc\]
2B\	.	.	4b\
.	.	.	4a/
1c	.	.	1g
=225	=225	=225	=225
!	!LO:N:vis=0	!	!
0r	[y0d	1d	1f
.	.	1f	1d
=226.	=226-	=226.	=226.
0D	0d]yy	1d	1f
.	.	[1f	1d
=227.	=227-	=227.	=227.
1D	0d	2f\]	1.f
.	.	2g\	.
1D	.	1a	.
.	.	.	2g/
=228	=228	=228	=228
!	!LO:N:vis=0.	!	!
1.F	[y0c	1r	1.a
.	.	[1A	.
2G\	.	.	4g/
.	.	.	4f/
=229.	=229-	=229.	=229.
1.A	0c_yy	2A/]	1e
.	.	2B\	.
.	.	2.c\	1a
4G\	.	.	.
4F\	.	4d\	.
=230.	=230-	=230.	=230.
1E	0c]yy	1e	1g
1F	.	1A	1a
=231	=231	=231	=231
1G	0r	1B	1d
1A	.	1c	2r
.	.	.	[2a/
=232.	=232-	=232.	=232.
1D	0r	1d	2a/]
.	.	.	2f/
2C/	.	2e\	2g/
[2F\	.	[2f\	[2a/
=233.	=233-	=233.	=233.
2F\]	0r	2f\]	2a/]
2G\	.	4e\	4g/
.	.	4d\	4f/
1A	.	1c	1e
=234	=234	=234	=234
!	!LO:N:vis=0	!	!
1.B-	[y0d	1.d	0d
4A\	.	4c\	.
4G\	.	4B\	.
=235.	=235-	=235.	=235.
2F\	0d]yy	2A/	1r
2G\	.	2G/	.
1D	.	1A	1a
=236.	=236-	=236.	=236.
1r	0d	0G	1b
1G	.	.	1b
=237	=237	=237	=237
!	!LO:N:vis=0	!	!
1.A	[y0c	0e	1.cc
2G\	.	.	2b\
=238.	=238-	=238.	=238.
1.F	0c]yy	1f	1.a
.	.	1f	.
4E\	.	.	4g/
4D\	.	.	4f/
=239.	=239-	=239.	=239.
0C	0c	0g	1.e
.	.	.	[2g/
=240	=240	=240	=240
!	!LO:N:vis=0.	!	!
1r	[y0B	0G	2g/]
.	.	.	2f/
1G	.	.	2d/
.	.	.	[2g/
=241.	=241-	=241.	=241.
2E\	0B_yy	0r	2g/]
2F\	.	.	2a/
1G	.	.	2b\
.	.	.	[2g/
=242.	=242-	=242.	=242.
2E\	0B]yy	1r	2g/]
2F\	.	.	4f/
.	.	.	4e/
1G	.	1d	1d
=243	=243	=243	=243
0C	0r	1e	1c
.	.	2f\	1r
.	.	[2g\	.
=244.	=244-	=244.	=244.
0r	0r	2g\]	1e
.	.	4f\	.
.	.	4e\	.
.	.	2d\	2f/
.	.	[2e\	[2g/
=245.	=245-	=245.	=245.
0r	0r	2e\]	2g/]
.	.	4d\	4f/
.	.	4c\	4e/
.	.	2.B\	1d
.	.	4A/	.
=246	=246	=246	=246
!	!LO:N:vis=0	!	!
1C	[y0c	1.c	0c
1F	.	.	.
.	.	4B\	.
.	.	4A/	.
=247.	=247-	=247.	=247.
1E	0c]yy	1G	1g
1F	.	1c	1a
=248.	=248-	=248.	=248.
0C	0c	1e	1g
.	.	1e	2e/
.	.	.	[2g/
=249	=249	=249	=249
!	!LO:N:vis=0	!	!
[0G	[y0B	1.d	2g/]
.	.	.	4f/
.	.	.	4e/
.	.	.	1d
.	.	2G/	.
=250.	=250-	=250.	=250.
0G]	0B]yy	1d	1r
.	.	2e\	[1g
.	.	[2g\	.
=251.	=251-	=251.	=251.
1r	0B	2g\]	2g/]
.	.	4f\	2a/
.	.	4e\	.
1G	.	1d	1b
=252	=252	=252	=252
!	!LO:N:vis=0.	!	!
1A	[y0A	1c	2cc\
.	.	.	1a
2F\	.	2A/	.
2G\	.	2B\	4g/
.	.	.	4f/
=253.	=253-	=253.	=253.
1A	0A_yy	1c	1e
[1D	.	[1d	2r
.	.	.	2d/
=254.	=254-	=254.	=254.
2D\]	0A]yy	2d\]	2f/
2E\	.	4c\	2g/
.	.	4B\	.
1F	.	1A	1a
=255	=255	=255	=255
1G	0r	0r	1b
2A\	.	.	2cc\
[2B-\	.	.	[2dd\
=256.	=256-	=256.	=256.
2B-\]	0r	0r	2dd\]
4A\	.	.	4cc\
4G\	.	.	4b\
2F\	.	.	2a/
[2G\	.	.	[2b\
=257.	=257-	=257.	=257.
2G\]	0r	0r	4b\]
.	.	.	4a/
2B\	.	.	1g
1A	.	.	.
.	.	.	2f#i/
=258	=258	=258	=258
!	!LO:N:vis=0	!	!
[0G	[y0B	1d	0g
.	.	1d	.
=259.	=259-	=259.	=259.
0G]	0B]yy	1B	1dd
.	.	1G	1dd
=260.	=260-	=260.	=260.
0G	0B	1r	1b
.	.	1d	1g
=261	=261	=261	=261
!	!LO:N:vis=0	!	!
1D	[y0A	1d	1r
[1F	.	1c	[1a
=262.	=262-	=262.	=262.
2F\]	0A]yy	1f	1a]
2G\	.	.	.
1A	.	2e\	1a
.	.	[2a\	.
=263.	=263-	=263.	=263.
0D	0A	4a\]	1a
.	.	4g\	.
.	.	4f#i\	.
.	.	4e\	.
.	.	1f#i	1a
=264	=264	=264	=264
!	!LO:N:vis=0.	!	!
0r	[y0G	1.g	1b
.	.	.	1g
.	.	2f\	.
=265.	=265-	=265.	=265.
0r	0G_yy	2e\	2.b\
.	.	4d\	.
.	.	4c\	4cc\
.	.	2B\	2dd\
.	.	[2g\	[2ee\
=266.	=266-	=266.	=266.
0r	0G]yy	2g\]	4ee\]
.	.	.	4dd\
.	.	2e\	1cc
.	.	1d	.
.	.	.	2b\
=267	=267	=267	=267
1.C	0r	0c	1cc
.	.	.	1r
2D\	.	.	.
=268.	=268-	=268.	=268.
1E	0r	0r	1.g
1C	.	.	.
.	.	.	2f/
=269.	=269-	=269.	=269.
1c	0r	1.g	1e
1B	.	.	1d
.	.	2f\	.
=270	=270	=270	=270
*	*rscale:1	*	*
1c	[0gl	1e	2e/
.	.	.	1c
1G	.	1d	.
.	.	.	2B/
=271.	=271-	=271.	=271.
1r	0g_	2e\	2c/
.	.	1c	2e/
1G	.	.	1d
.	.	2B\	.
=272.	=272-	=272.	=272.
1r	0g_	2c\	1c
.	.	2e\	.
1G	.	1d	1r
=273	=273	=273	=273
1c	0g_	1c	1e
1B	.	1r	2d/
.	.	.	[2g/
=274.	=274-	=274.	=274.
1c	0g_	1e	2g/]
.	.	.	2c/
1G	.	2d\	2d/
.	.	[2g\	2B/
=275.	=275-	=275.	=275.
2r	0g_	2g\]	1c
2C/	.	2c\	.
1G	.	2d\	1r
.	.	2B\	.
=276	=276	=276	=276
1C	0g_	1c	1ee
1G	.	1r	2dd\
.	.	.	[2ee\
=277.	=277-	=277.	=277.
2r	0g_	1e	2ee\]
2C/	.	.	2cc\
1G	.	2d\	2dd\
.	.	[2e\	2b\
=278.	=278-	=278.	=278.
1C	0g_	2e\]	1cc
.	.	2c\	.
1G	.	2d\	1r
.	.	2B\	.
=279	=279	=279	=279
2r	0g_	1c	1ee
2C/	.	.	.
1G	.	1r	2dd\
.	.	.	[2ee\
=280.	=280-	=280.	=280.
1C	0g_	1e	2ee\]
.	.	.	2cc\
1G	.	2d\	2dd\
.	.	[2e\	2b\
=281.	=281-	=281.	=281.
0c	0g_	2e\]	2cc\
.	.	2c\	1ee
.	.	1e	.
.	.	.	4dd\
.	.	.	4cc\
=282	=282	=282	=282
!LO:N:vis=00.	!	!LO:N:vis=00.	!LO:N:vis=00.
0G;	0g_	0d;	0b;
=283.	=283-	=283.	=283.
0Cl	0g]	0cl	0ccl
==	==	==	==
*-	*-	*-	*-
!!!RDF**kern: l=long note in original notation
!!!RDF**kern: i=editorial accidental
!!!ENC:	Jesse Rodin; Victoria Chang 2012/02/01
!!!END:	2012/02/01/
!!!EED:	Jesse Rodin
!!!EEV:	2012/06/09/
!!attribution-level@Jos: 3 (tricky)
!!!ONB:	Translated from MusicXML and edited on 2012/06/09/ by Craig Sapp
!!muse2ps: T^@{OPR}^u^@{ONM}{. }@{OTL}^C^@{COA}?\n@{SCT}^i2I150v85,85,85,150c180
